Sweet-Rainbow/icons/goland.svg

<?xml version="1.0" encoding="UTF-8" standalone="no"?>
<!-- Generator: Gravit.io -->

<svg
   xmlns:dc="http://purl.org/dc/elements/1.1/"
   xmlns:cc="http://creativecommons.org/ns#"
   xmlns:rdf="http://www.w3.org/1999/02/22-rdf-syntax-ns#"
   xmlns:svg="http://www.w3.org/2000/svg"
   xmlns="http://www.w3.org/2000/svg"
   xmlns:sodipodi="http://sodipodi.sourceforge.net/DTD/sodipodi-0.dtd"
   xmlns:inkscape="http://www.inkscape.org/namespaces/inkscape"
   style="isolation:isolate"
   viewBox="0 0 36 36"
   width="48"
   height="48"
   version="1.1"
   id="svg30"
   sodipodi:docname="goland.svg"
   inkscape:version="0.92.4 (5da689c313, 2019-01-14)">
  <metadata
     id="metadata36">
    <rdf:RDF>
      <cc:Work
         rdf:about="">
        <dc:format>image/svg+xml</dc:format>
        <dc:type
           rdf:resource="http://purl.org/dc/dcmitype/StillImage" />
        <dc:title></dc:title>
      </cc:Work>
    </rdf:RDF>
  </metadata>
  <defs
     id="defs34" />
  <sodipodi:namedview
     pagecolor="#ffffff"
     bordercolor="#666666"
     borderopacity="1"
     objecttolerance="10"
     gridtolerance="10"
     guidetolerance="10"
     inkscape:pageopacity="0"
     inkscape:pageshadow="2"
     inkscape:window-width="640"
     inkscape:window-height="480"
     id="namedview32"
     showgrid="false"
     inkscape:zoom="29.365243"
     inkscape:cx="25.325443"
     inkscape:cy="32"
     inkscape:current-layer="svg30"
     units="px" />
  <linearGradient
     id="_lgradient_57"
     x1="0.83536583"
     y1="0.0049999999"
     x2="0.58824003"
     y2="1.0536784"
     gradientTransform="matrix(25.46,0,0,30.4,22.31,18.28)"
     gradientUnits="userSpaceOnUse">
    <stop
       offset="0%"
       stop-opacity="1"
       style="stop-color:rgb(52,148,230)"
       id="stop2" />
    <stop
       offset="98.69565217391305%"
       stop-opacity="1"
       style="stop-color:rgb(236,110,173)"
       id="stop4" />
  </linearGradient>
  <linearGradient
     id="_lgradient_58"
     x1="0.67180997"
     y1="0.020570019"
     x2="0.73800904"
     y2="0.87405372"
     gradientTransform="matrix(33.67,0,0,47.5,-0.31,1)"
     gradientUnits="userSpaceOnUse">
    <stop
       offset="0%"
       stop-opacity="1"
       style="stop-color:rgb(26,108,255)"
       id="stop9" />
    <stop
       offset="98.26086956521739%"
       stop-opacity="1"
       style="stop-color:rgb(179,76,243)"
       id="stop11" />
  </linearGradient>
  <linearGradient
     id="_lgradient_59"
     x1="0.39980158"
     y1="0.20242152"
     x2="0.36506835"
     y2="1.1185315"
     gradientTransform="matrix(13.47,0,0,16.64,36,9.28)"
     gradientUnits="userSpaceOnUse">
    <stop
       offset="0%"
       stop-opacity="1"
       style="stop-color:rgb(67,233,123)"
       id="stop16" />
    <stop
       offset="97.82608695652173%"
       stop-opacity="1"
       style="stop-color:rgb(56,249,215)"
       id="stop18" />
  </linearGradient>
  <linearGradient
     id="_lgradient_60"
     x1="0.061897106"
     y1="0.14716151"
     x2="1.0166036"
     y2="1.2739059"
     gradientTransform="matrix(29,0,0,29,9.5,9.5)"
     gradientUnits="userSpaceOnUse">
    <stop
       offset="0%"
       stop-opacity="1"
       style="stop-color:rgb(22,181,228)"
       id="stop23" />
    <stop
       offset="98.26086956521739%"
       stop-opacity="1"
       style="stop-color:rgb(245,32,250)"
       id="stop25" />
  </linearGradient>
  <g
     id="g847"
     transform="matrix(0.723182,0,0,0.723182,0.22418644,0.03615912)">
    <path
       id="path7"
       d="m 39.25,21.96 -0.97,-1.75 3.51,-1.93 0.96,1.76 5.02,9.14 -10.15,19.5 -13.53,-6.9 -1.78,-0.91 1.82,-3.56 1.78,0.91 10,5.1 7.32,-14.09 z"
       style="fill:url(#_lgradient_57)"
       inkscape:connector-curvature="0" />
    <path
       id="path14"
       d="M 21.91,39.88 23.33,38.47 29.36,38 24.74,42.71 18.95,48.5 -0.31,37.27 5.58,28.07 0.14,20.63 10.71,1 h 18.65 l 3.27,8.27 0.73,1.86 -3.72,0.892 L 28.91,10.73 26.64,5 H 13.1 l -8.24,15.31 5.56,7.62 -5.11,7.99 12.99,7.58 z"
       style="fill:url(#_lgradient_58)"
       inkscape:connector-curvature="0" />
    <path
       id="path21"
       d="M 39.67,14.39 37.69,14.61 37.24,10.64 39.23,10.42 49.47,9.28 39.79,24.24 38.7,25.92 36,22.635 37.24,21 41.53,14.19 Z"
       style="fill:url(#_lgradient_59)"
       inkscape:connector-curvature="0" />
    <path
       id="path28"
       d="m 35.978,31.218 v 0 c 0,-0.695 0.565,-1.26 1.261,-1.26 v 0 c 0.696,0 1.261,0.565 1.261,1.26 v 0 4.13 c 0,1.74 -1.412,3.152 -3.152,3.152 H 12.652 C 10.912,38.5 9.5,37.088 9.5,35.348 v -11.978 0 c 0,-0.696 0.565,-1.261 1.261,-1.261 v 0 c 0.696,0 1.261,0.565 1.261,1.261 v 0 10.717 c 0,1.044 0.847,1.891 1.891,1.891 h 20.174 c 1.044,0 1.891,-0.847 1.891,-1.891 z M 12.022,16.782 v 0 c 0,0.695 -0.565,1.26 -1.261,1.26 v 0 c -0.696,0 -1.261,-0.565 -1.261,-1.26 v 0 -4.13 C 9.5,10.912 10.912,9.5 12.652,9.5 h 22.696 c 1.74,0 3.152,1.412 3.152,3.152 v 12.495 0 c 0,0.696 -0.565,1.261 -1.261,1.261 v 0 c -0.696,0 -1.261,-0.565 -1.261,-1.261 v 0 -11.234 c 0,-1.044 -0.847,-1.891 -1.891,-1.891 H 13.913 c -1.044,0 -1.891,0.847 -1.891,1.891 z m 6.494,4.448 v -1.821 h 4.094 v 5.35 0 q -0.995,0.325 -1.874,0.456 v 0 0 q -0.879,0.13 -1.796,0.13 v 0 0 q -2.337,0 -3.568,-1.373 v 0 0 Q 14.14,22.599 14.14,20.03 v 0 0 q 0,-2.499 1.429,-3.896 v 0 0 q 1.43,-1.398 3.964,-1.398 v 0 0 q 1.588,0 3.063,0.636 v 0 l -0.727,1.75 v 0 Q 20.74,16.557 19.518,16.557 v 0 0 q -1.418,0 -2.272,0.953 v 0 0 q -0.854,0.953 -0.854,2.563 v 0 0 q 0,1.679 0.688,2.565 v 0 0 q 0.688,0.886 2.001,0.886 v 0 0 q 0.684,0 1.39,-0.141 v 0 -2.153 z m 7.663,-1.2 v 0 0 q 0,1.729 0.656,2.605 v 0 0 q 0.657,0.875 1.962,0.875 v 0 0 q 2.619,0 2.619,-3.48 v 0 0 q 0,-3.487 -2.604,-3.487 v 0 0 q -1.306,0 -1.97,0.879 v 0 0 q -0.663,0.879 -0.663,2.608 z m 7.531,0 v 0 0 q 0,2.562 -1.27,3.939 v 0 0 q -1.271,1.376 -3.643,1.376 v 0 0 q -2.371,0 -3.642,-1.376 v 0 0 q -1.27,-1.377 -1.27,-3.953 v 0 0 q 0,-2.576 1.274,-3.935 v 0 0 q 1.274,-1.359 3.653,-1.359 v 0 0 q 2.378,0 3.638,1.37 v 0 0 q 1.26,1.369 1.26,3.938 z M 14,30.5 h 9 V 33 h -9 z"
       style="fill:url(#_lgradient_60);fill-rule:evenodd"
       inkscape:connector-curvature="0" />
  </g>
</svg>

<?xml version="1.0" encoding="UTF-8" standalone="no"?><!-- Generator: Gravit.io --><svg xmlns="http://www.w3.org/2000/svg" xmlns:xlink="http://www.w3.org/1999/xlink" style="isolation:isolate" viewBox="0 0 48 48" width="48pt" height="48pt"><linearGradient id="_lgradient_57" x1="0.8353658536585366" y1="0.004999999999999838" x2="0.5882400343827225" y2="1.0536784140969158" gradientTransform="matrix(25.46,0,0,30.4,22.31,18.28)" gradientUnits="userSpaceOnUse"><stop offset="0%" stop-opacity="1" style="stop-color:rgb(52,148,230)"/><stop offset="98.69565217391305%" stop-opacity="1" style="stop-color:rgb(236,110,173)"/></linearGradient><path d=" M 39.25 21.96 L 38.28 20.21 L 41.79 18.28 L 42.75 20.04 L 47.77 29.18 L 37.62 48.68 L 24.09 41.78 L 22.31 40.87 L 24.13 37.31 L 25.91 38.22 L 35.91 43.32 L 43.23 29.23 L 39.25 21.96 Z " fill="url(#_lgradient_57)"/><linearGradient id="_lgradient_58" x1="0.6718099850460906" y1="0.020570018975650584" x2="0.738009024500421" y2="0.874053721135969" gradientTransform="matrix(33.67,0,0,47.5,-0.31,1)" gradientUnits="userSpaceOnUse"><stop offset="0%" stop-opacity="1" style="stop-color:rgb(26,108,255)"/><stop offset="98.26086956521739%" stop-opacity="1" style="stop-color:rgb(179,76,243)"/></linearGradient><path d=" M 21.91 39.88 L 23.33 38.47 L 29.36 38 L 24.74 42.71 L 18.95 48.5 L -0.31 37.27 L 5.58 28.07 L 0.14 20.63 L 10.71 1 L 29.36 1 L 32.63 9.27 L 33.36 11.13 L 29.64 12.022 L 28.91 10.73 L 26.64 5 L 13.1 5 L 4.86 20.31 L 10.42 27.93 L 5.31 35.92 L 18.3 43.5 L 21.91 39.88 Z " fill="url(#_lgradient_58)"/><linearGradient id="_lgradient_59" x1="0.39980158730156745" y1="0.20242151662881497" x2="0.36506834215163786" y2="1.11853149718325" gradientTransform="matrix(13.47,0,0,16.64,36,9.28)" gradientUnits="userSpaceOnUse"><stop offset="0%" stop-opacity="1" style="stop-color:rgb(67,233,123)"/><stop offset="97.82608695652173%" stop-opacity="1" style="stop-color:rgb(56,249,215)"/></linearGradient><path d=" M 39.67 14.39 L 37.69 14.61 L 37.24 10.64 L 39.23 10.42 L 49.47 9.28 L 39.79 24.24 L 38.7 25.92 L 36 22.635 L 37.24 21 L 41.53 14.19 L 39.67 14.39 Z " fill="url(#_lgradient_59)"/><linearGradient id="_lgradient_60" x1="0.061897106109324806" y1="0.14716151924516707" x2="1.0166035910423126" y2="1.2739058992626733" gradientTransform="matrix(29,0,0,29,9.5,9.5)" gradientUnits="userSpaceOnUse"><stop offset="0%" stop-opacity="1" style="stop-color:rgb(22,181,228)"/><stop offset="98.26086956521739%" stop-opacity="1" style="stop-color:rgb(245,32,250)"/></linearGradient><path d=" M 35.978 31.218 L 35.978 31.218 C 35.978 30.523 36.543 29.958 37.239 29.958 L 37.239 29.958 C 37.935 29.958 38.5 30.523 38.5 31.218 L 38.5 31.218 L 38.5 35.348 C 38.5 37.088 37.088 38.5 35.348 38.5 L 12.652 38.5 C 10.912 38.5 9.5 37.088 9.5 35.348 L 9.5 23.37 L 9.5 23.37 C 9.5 22.674 10.065 22.109 10.761 22.109 L 10.761 22.109 C 11.457 22.109 12.022 22.674 12.022 23.37 L 12.022 23.37 L 12.022 34.087 C 12.022 35.131 12.869 35.978 13.913 35.978 L 34.087 35.978 C 35.131 35.978 35.978 35.131 35.978 34.087 L 35.978 31.218 L 35.978 31.218 L 35.978 31.218 Z  M 12.022 16.782 L 12.022 16.782 C 12.022 17.477 11.457 18.042 10.761 18.042 L 10.761 18.042 C 10.065 18.042 9.5 17.477 9.5 16.782 L 9.5 16.782 L 9.5 12.652 C 9.5 10.912 10.912 9.5 12.652 9.5 L 35.348 9.5 C 37.088 9.5 38.5 10.912 38.5 12.652 L 38.5 25.147 L 38.5 25.147 C 38.5 25.843 37.935 26.408 37.239 26.408 L 37.239 26.408 C 36.543 26.408 35.978 25.843 35.978 25.147 L 35.978 25.147 L 35.978 13.913 C 35.978 12.869 35.131 12.022 34.087 12.022 L 13.913 12.022 C 12.869 12.022 12.022 12.869 12.022 13.913 L 12.022 16.782 L 12.022 16.782 L 12.022 16.782 Z  M 18.516 21.23 L 18.516 19.409 L 22.61 19.409 L 22.61 24.759 L 22.61 24.759 Q 21.615 25.084 20.736 25.215 L 20.736 25.215 L 20.736 25.215 Q 19.857 25.345 18.94 25.345 L 18.94 25.345 L 18.94 25.345 Q 16.603 25.345 15.372 23.972 L 15.372 23.972 L 15.372 23.972 Q 14.14 22.599 14.14 20.03 L 14.14 20.03 L 14.14 20.03 Q 14.14 17.531 15.569 16.134 L 15.569 16.134 L 15.569 16.134 Q 16.999 14.736 19.533 14.736 L 19.533 14.736 L 19.533 14.736 Q 21.121 14.736 22.596 15.372 L 22.596 15.372 L 21.869 17.122 L 21.869 17.122 Q 20.74 16.557 19.518 16.557 L 19.518 16.557 L 19.518 16.557 Q 18.1 16.557 17.246 17.51 L 17.246 17.51 L 17.246 17.51 Q 16.392 18.463 16.392 20.073 L 16.392 20.073 L 16.392 20.073 Q 16.392 21.752 17.08 22.638 L 17.08 22.638 L 17.08 22.638 Q 17.768 23.524 19.081 23.524 L 19.081 23.524 L 19.081 23.524 Q 19.765 23.524 20.471 23.383 L 20.471 23.383 L 20.471 21.23 L 18.516 21.23 L 18.516 21.23 L 18.516 21.23 Z  M 26.179 20.03 L 26.179 20.03 L 26.179 20.03 Q 26.179 21.759 26.835 22.635 L 26.835 22.635 L 26.835 22.635 Q 27.492 23.51 28.797 23.51 L 28.797 23.51 L 28.797 23.51 Q 31.416 23.51 31.416 20.03 L 31.416 20.03 L 31.416 20.03 Q 31.416 16.543 28.812 16.543 L 28.812 16.543 L 28.812 16.543 Q 27.506 16.543 26.842 17.422 L 26.842 17.422 L 26.842 17.422 Q 26.179 18.301 26.179 20.03 L 26.179 20.03 L 26.179 20.03 Z  M 33.71 20.03 L 33.71 20.03 L 33.71 20.03 Q 33.71 22.592 32.44 23.969 L 32.44 23.969 L 32.44 23.969 Q 31.169 25.345 28.797 25.345 L 28.797 25.345 L 28.797 25.345 Q 26.426 25.345 25.155 23.969 L 25.155 23.969 L 25.155 23.969 Q 23.885 22.592 23.885 20.016 L 23.885 20.016 L 23.885 20.016 Q 23.885 17.44 25.159 16.081 L 25.159 16.081 L 25.159 16.081 Q 26.433 14.722 28.812 14.722 L 28.812 14.722 L 28.812 14.722 Q 31.19 14.722 32.45 16.092 L 32.45 16.092 L 32.45 16.092 Q 33.71 17.461 33.71 20.03 L 33.71 20.03 L 33.71 20.03 Z  M 14 30.5 L 23 30.5 L 23 33 L 14 33 L 14 30.5 Z " fill-rule="evenodd" fill="url(#_lgradient_60)"/></svg>
